packages/icons/svg/24/QuestionOutline.svg

<svg width="24" height="24" viewBox="0 0 24 24" fill="none" xmlns="http://www.w3.org/2000/svg">
<path d="M13.5 18.5C13.5 19.3284 12.8284 20 12 20C11.1716 20 10.5 19.3284 10.5 18.5C10.5 17.6716 11.1716 17 12 17C12.8284 17 13.5 17.6716 13.5 18.5Z" fill="#858585"/>
<path fill-rule="evenodd" clip-rule="evenodd" d="M12 6C10.3431 6 9 7.34315 9 9C9 9.55228 8.55228 10 8 10C7.44772 10 7 9.55228 7 9C7 6.23858 9.23858 4 12 4C14.7614 4 17 6.23858 17 9C17 10.1818 16.6994 11.0823 16.1837 11.7913C15.6873 12.4739 15.0428 12.9025 14.53 13.223C14.4471 13.2748 14.3687 13.3233 14.2946 13.3693C13.8622 13.637 13.5725 13.8163 13.3464 14.0519C13.1446 14.2621 13 14.5161 13 15C13 15.5523 12.5523 16 12 16C11.4477 16 11 15.5523 11 15C11 13.9839 11.3554 13.2379 11.9036 12.6668C12.3218 12.2313 12.8609 11.9009 13.2794 11.6445C13.3463 11.6035 13.4102 11.5644 13.47 11.527C13.9572 11.2225 14.3127 10.9636 14.5663 10.615C14.8006 10.2927 15 9.81825 15 9C15 7.34315 13.6569 6 12 6Z" fill="#858585"/>
</svg>

<svg width="24" height="24" fill="none" xmlns="http://www.w3.org/2000/svg" viewBox="0 0 24 24"><path d="M13.5 18.5a1.5 1.5 0 11-3 0 1.5 1.5 0 013 0z" fill="currentColor"></path><path fill-rule="evenodd" clip-rule="evenodd" d="M12 6a3 3 0 00-3 3 1 1 0 01-2 0 5 5 0 0110 0c0 1.182-.3 2.082-.816 2.791-.497.683-1.141 1.111-1.654 1.432l-.235.146c-.433.268-.723.447-.949.683-.201.21-.346.464-.346.948a1 1 0 11-2 0c0-1.016.355-1.762.904-2.333.418-.436.957-.766 1.375-1.022l.191-.118c.487-.304.843-.563 1.096-.912.235-.322.434-.797.434-1.615a3 3 0 00-3-3z" fill="currentColor"></path></svg>
